!!!OTL: Graf und Nonne (Die Nonne)
!!!OTL-incipit:Stand ich auf hohen Bergen,
!!!ARE: Europa, Mitteleuropa, Deutschland (), Thueringen, Poermitz
!!!YOR: 8, S. 51
!!    1909 aufgezeichnet
!!!SCT: Q0155J
!!!TXL: @@DE
!!!YEM: Copyright 1995, estate of Helmut Schaffrath.
**kern	**text
*ICvox	*
*M6/8	*
*k[b-]	*
*F:	*
{8c	Stand
=1	=1
4f	ich
8a	auf
4cc	ho-
8f	-hen
=2	=2
8fL	Ber-
8eJ	-gen,
8r	.
4r}	.
{8c	schaut
=3	=3
4e	in
8g	das
4cc	tie-
8b-	-fe
=4	=4
4a	Tal,
8r	.
4r}	.
{8c	ein
=5	=5
4f	Schiff-
8g	-lein
4a	sah
8b-	ich
=6	=6
(4cc	schwim-
8ff)	.
4ee}	-men,
{8dd	da-
=7	=7
8ccL	-rin-
8cc	-nen
8ccJ	drei
4b-	Gra-
8e	-fen
=8	=8
[4.f	war'n.
8f]	.
8r}	.
==	==
!!!AGN: Ballade, Standesunterschied, vergebliche Werbung, Liebe, Klage
!!!ONB: ESAC (Essen Associative Code) Database: BALLADE
!!!AMT: compound duple
!!!AIN: vox
!!!EED: Helmut Schaffrath
!!!EEV: 1.0
!!@@COMMENT:"Aufʒeichnung in Pörmite Thüringen, 1909
!!(Sammlung Carl Hartenstein: DVA = A 104 428)"
!!@@END:
!!!source: Deutsche Volkslieder mit ihren Melodien. Herausgegeben vom Deutschen Volksliedarchiv. Achter Teil. Freiburg/Breisgau 1988.
!!!page: 51
!!!ENC: Anna Maria Matuszewska
!!!EEV: 2025/03/10
*-	*-
